logo.svg

<svg width="400" height="401.848" xmlns="http://www.w3.org/2000/svg" display="block">
  <path class="path4" d="M185.373 25.282C105.822 31.536 40.448 89.87 25.286 168.129c-2.369 12.228-2.961 18.972-2.961 33.719 0 39.724 11.779 75.148 35.518 106.815 4.515 6.023 4.446 6.037 3.463-.688-2.388-16.34.608-21.88 14.599-26.998 7.544-2.76 8.266-3.294 13.076-9.697 1.588-2.114 3.702-4.77 4.696-5.902l1.808-2.058-.244-4.1c-1.494-25.046 12.704-57.303 39.362-89.426 13.282-16.006 17.919-33.165 16.161-59.808-3.088-46.78 9.059-67.329 42-71.053 30.964-3.502 49.842 10.376 55.529 40.821 1.783 9.547 2.072 13.648 2.353 33.41.398 28.039 2.423 33.017 24.176 59.43 27.59 33.503 38.03 65.131 30.403 92.113l-.883 3.121 1.354.658c5.844 2.839 8.003 6.359 10.746 17.524 1.812 7.379 2.798 9.935 4.722 12.243 7.367 8.837 9.754 13.58 9.502 18.886l-.111 2.338 1.101-1.232c19.518-21.829 34.424-52.42 40.286-82.679 2.369-12.228 2.962-18.972 2.962-33.718 0-103.142-87.432-184.593-189.531-176.566m20.979 59.121c-8.335 1.429-14.144 11.133-13.649 22.797l.061 1.426 1.452.366c.799.201 2.393.765 3.541 1.254l2.089.889v-2.353c0-9.323 6.35-15.227 11.435-10.633 4.014 3.628 4.765 12.5 1.504 17.777-.707 1.144-.76 1.395-.29 1.395.182 0 1.927.624 3.877 1.386 4.084 1.597 3.734 1.666 5.319-1.047 8.647-14.806-.997-35.716-15.339-33.257m-41.219 3.654c-8.647 3.925-10.612 21.733-3.426 31.035 1.237 1.6 1.241 1.6 3.386-.02l1.736-1.312-1.003-1.095c-3.622-3.952-3.705-13.195-.146-16.41 3.631-3.281 8.224 1.751 8.336 9.133.036 2.377-.036 2.316 1.631 1.36.692-.397 2.055-1.046 3.029-1.442l1.77-.72-.002-2.946c-.008-11.603-8.076-20.868-15.311-17.583m98.527 162.267c-7.796 1.97-6.372 19.247 1.929 23.392 8.031 4.011 22.665-7.472 18.525-14.537-2.657-4.533-15.519-10.101-20.454-8.855m-10.337 13.602c-6.083 4.029-8.821 13.427-9.905 33.995-.375 7.123-1.073 10.562-4.626 22.787-6.19 21.299-5.815 28.599 1.862 36.317 11.156 11.214 29.321 6.952 45.2-10.605 5.998-6.632 10.388-9.655 23.708-16.328 8.849-4.432 12.745-6.734 14.444-8.533 3.982-4.215 2.424-9.689-5.449-19.15-3.706-4.453-4.282-5.757-6.448-14.604-1.917-7.832-2.869-10.216-5.005-12.522-4.232-4.571-12.931-5.84-16.661-2.43-7.128 6.514-16.775 10.277-22.788 8.89-6.163-1.421-11.385-8.652-12.28-17.001-.221-2.067-.186-2.053-2.052-.816m-148.688-.339c-3.43.599-6.284 3.047-11.241 9.641-5.796 7.711-7.75 9.228-15.334 11.905-8.863 3.128-12.008 5.997-12.825 11.7-.331 2.31-.217 3.837.87 11.712.563 4.076.743 6.471.634 8.417l-.152 2.721 6.506 6.547c7.91 7.96 14.404 13.584 22.005 19.056 2.205 1.588 2.736 1.813 6.58 2.799 4.792 1.228 8.421 2.567 12.481 4.607 25.11 12.61 47.266 6.721 47.337-12.584.025-6.686-3.073-12.438-14.383-26.708-8.959-11.303-9.276-11.787-14.174-21.633-11.074-22.262-18.703-29.857-28.304-28.18m206.835 70.77c-12.458 6.347-16.094 8.76-20.937 13.898-4.517 4.793-8.615 8.788-10.129 9.875-2.376 1.706-1.35 1.397 2.641-.795 12.775-7.018 24.388-15.365 35.508-25.523 2.547-2.327 2.318-2.245-7.083 2.545m-117.937 11.635c-5.501.573-10.039 1.228-16.782 2.423-4.318.765-8.924 1.48-10.235 1.589l-2.383.199-.821 1.419c-6.718 11.611-22.534 15.527-39.775 9.848-3.165-1.042-2.49-.483 1.708 1.416 38.134 17.247 79.991 20.614 120.125 9.665 4.056-1.106 14.122-4.347 15.039-4.842.199-.107-1.879-.201-4.619-.208-12.251-.031-21.183-6.534-25.255-18.386-.162-.475-.643-.539-4.011-.539-4.436 0-7.63-.294-16.978-1.562-6.402-.868-13.277-1.307-16.013-1.022" fill="#5294e2" fill-rule="evenodd"/>
</svg>

<svg id="svg" version="1.1" width="400" height="401.8475750577367" xmlns="http://www.w3.org/2000/svg" xmlns:xlink="http://www.w3.org/1999/xlink" style="display: block;"><g id="svgg"><path id="path0" d="" stroke="none" fill="#000000" fill-rule="evenodd"></path><path id="path1" d="" stroke="none" fill="#003399" fill-rule="evenodd"></path><path id="path2" d="" stroke="none" fill="#005555" fill-rule="evenodd"></path><path id="path3" d="" stroke="none" fill="#246db6" fill-rule="evenodd"></path><path id="path4" d="M185.373 25.282 C 105.822 31.536,40.448 89.870,25.286 168.129 C 22.917 180.357,22.325 187.101,22.325 201.848 C 22.325 241.572,34.104 276.996,57.843 308.663 C 62.358 314.686,62.289 314.700,61.306 307.975 C 58.918 291.635,61.914 286.095,75.905 280.977 C 83.449 278.217,84.171 277.683,88.981 271.280 C 90.569 269.166,92.683 266.510,93.677 265.378 L 95.485 263.320 95.241 259.220 C 93.747 234.174,107.945 201.917,134.603 169.794 C 147.885 153.788,152.522 136.629,150.764 109.986 C 147.676 63.206,159.823 42.657,192.764 38.933 C 223.728 35.431,242.606 49.309,248.293 79.754 C 250.076 89.301,250.365 93.402,250.646 113.164 C 251.044 141.203,253.069 146.181,274.822 172.594 C 302.412 206.097,312.852 237.725,305.225 264.707 L 304.342 267.828 305.696 268.486 C 311.540 271.325,313.699 274.845,316.442 286.010 C 318.254 293.389,319.240 295.945,321.164 298.253 C 328.531 307.090,330.918 311.833,330.666 317.139 L 330.555 319.477 331.656 318.245 C 351.174 296.416,366.080 265.825,371.942 235.566 C 374.311 223.338,374.904 216.594,374.904 201.848 C 374.904 98.706,287.472 17.255,185.373 25.282 M206.352 84.403 C 198.017 85.832,192.208 95.536,192.703 107.200 L 192.764 108.626 194.216 108.992 C 195.015 109.193,196.609 109.757,197.757 110.246 L 199.846 111.135 199.846 108.782 C 199.846 99.459,206.196 93.555,211.281 98.149 C 215.295 101.777,216.046 110.649,212.785 115.926 C 212.078 117.070,212.025 117.321,212.495 117.321 C 212.677 117.321,214.422 117.945,216.372 118.707 C 220.456 120.304,220.106 120.373,221.691 117.660 C 230.338 102.854,220.694 81.944,206.352 84.403 M165.133 88.057 C 156.486 91.982,154.521 109.790,161.707 119.092 C 162.944 120.692,162.948 120.692,165.093 119.072 L 166.829 117.760 165.826 116.665 C 162.204 112.713,162.121 103.470,165.680 100.255 C 169.311 96.974,173.904 102.006,174.016 109.388 C 174.052 111.765,173.980 111.704,175.647 110.748 C 176.339 110.351,177.702 109.702,178.676 109.306 L 180.446 108.586 180.444 105.640 C 180.436 94.037,172.368 84.772,165.133 88.057 M263.660 250.324 C 255.864 252.294,257.288 269.571,265.589 273.716 C 273.620 277.727,288.254 266.244,284.114 259.179 C 281.457 254.646,268.595 249.078,263.660 250.324 M253.323 263.926 C 247.240 267.955,244.502 277.353,243.418 297.921 C 243.043 305.044,242.345 308.483,238.792 320.708 C 232.602 342.007,232.977 349.307,240.654 357.025 C 251.810 368.239,269.975 363.977,285.854 346.420 C 291.852 339.788,296.242 336.765,309.562 330.092 C 318.411 325.660,322.307 323.358,324.006 321.559 C 327.988 317.344,326.430 311.870,318.557 302.409 C 314.851 297.956,314.275 296.652,312.109 287.805 C 310.192 279.973,309.240 277.589,307.104 275.283 C 302.872 270.712,294.173 269.443,290.443 272.853 C 283.315 279.367,273.668 283.130,267.655 281.743 C 261.492 280.322,256.270 273.091,255.375 264.742 C 255.154 262.675,255.189 262.689,253.323 263.926 M104.635 263.587 C 101.205 264.186,98.351 266.634,93.394 273.228 C 87.598 280.939,85.644 282.456,78.060 285.133 C 69.197 288.261,66.052 291.130,65.235 296.833 C 64.904 299.143,65.018 300.670,66.105 308.545 C 66.668 312.621,66.848 315.016,66.739 316.962 L 66.587 319.683 73.093 326.230 C 81.003 334.190,87.497 339.814,95.098 345.286 C 97.303 346.874,97.834 347.099,101.678 348.085 C 106.470 349.313,110.099 350.652,114.159 352.692 C 139.269 365.302,161.425 359.413,161.496 340.108 C 161.521 333.422,158.423 327.670,147.113 313.400 C 138.154 302.097,137.837 301.613,132.939 291.767 C 121.865 269.505,114.236 261.910,104.635 263.587 M311.470 334.357 C 299.012 340.704,295.376 343.117,290.533 348.255 C 286.016 353.048,281.918 357.043,280.404 358.130 C 278.028 359.836,279.054 359.527,283.045 357.335 C 295.820 350.317,307.433 341.970,318.553 331.812 C 321.100 329.485,320.871 329.567,311.470 334.357 M193.533 345.992 C 188.032 346.565,183.494 347.220,176.751 348.415 C 172.433 349.180,167.827 349.895,166.516 350.004 L 164.133 350.203 163.312 351.622 C 156.594 363.233,140.778 367.149,123.537 361.470 C 120.372 360.428,121.047 360.987,125.245 362.886 C 163.379 380.133,205.236 383.500,245.370 372.551 C 249.426 371.445,259.492 368.204,260.409 367.709 C 260.608 367.602,258.530 367.508,255.790 367.501 C 243.539 367.470,234.607 360.967,230.535 349.115 C 230.373 348.640,229.892 348.576,226.524 348.576 C 222.088 348.576,218.894 348.282,209.546 347.014 C 203.144 346.146,196.269 345.707,193.533 345.992 " stroke="none" fill="#5294e2" fill-rule="evenodd"></path></g></svg>
